X:1
T:Aristides, CM
T:Aristides, CM
T:Arthur Henry Mann, 1889
T:Public Domain Courtesy of the Cyber Hymnal™
C:Arthur Henry Mann, 1889
Z:Public Domain
Z:Courtesy of the Cyber Hymnal™
%%score ( 1 2 ) ( 3 4 )
L:1/8
Q:1/4=110
M:4/4
K:D
V:1 treble 
V:2 treble 
V:3 bass 
V:4 bass 
V:1
 [FA]2 | [Fd]3 [Fd] [^Ec]2 [EB]2 | [FA]3 [^EB] [FA]2 D2 | [DE]3 [^DF] [FA]2 ([EG][=DF]) | %4
 [CE]6 [EA]2 | [FA]2 ([^E^G][FA]) [Fd]2 [Fd]2 | [^Ec]3 [EB] [FA]2 D2 | %7
 [DE]2 ([^DF][EG]) [CF]2 [CE]2 | D6 |] %9
V:2
 x2 | x8 | x6 D2 | x8 | x8 | x8 | x6 D2 | x8 | D6 |] %9
V:3
 [D,A,]2 | [D,A,]3 [D,A,] [D,^G,]2 [D,G,]2 | [D,A,]3 [D,^G,] [D,A,]2 [F,A,]2 | %3
 [G,B,]3 [F,B,] [E,B,]2 [G,B,]2 | [A,C]6 [A,C]2 | [D,D]2 [D,D]2 [D,A,]2 [D,A,]2 | %6
 [D,^G,]2 [D,G,]2 [D,A,]2 [F,A,]2 | [G,B,]2 B,2 A,2 [A,,G,]2 | [D,F,]6 |] %9
V:4
 x2 | x8 | x8 | x8 | x8 | x8 | x8 | x2 (F,E,) A,2 x2 | x6 |] %9

